public/icons/admin/report.svg

<svg width="17" height="20" viewBox="0 0 17 20" fill="none" xmlns="http://www.w3.org/2000/svg">
<path d="M9 0.0919897V6.81617C9 6.86492 9.01937 6.91168 9.05384 6.94616C9.08832 6.98063 9.13508 7 9.18383 7H15.908C15.9262 7.00001 15.9439 6.99465 15.959 6.98458C15.9742 6.97451 15.986 6.96019 15.9929 6.94342C15.9999 6.92665 16.0018 6.90819 15.9983 6.89037C15.9948 6.87255 15.9861 6.85616 15.9733 6.84328L9.15672 0.0267288C9.14384 0.0139244 9.12745 0.00522296 9.10963 0.00172294C9.09181 -0.00177708 9.07335 8.10782e-05 9.05658 0.00706311C9.03981 0.0140451 9.02549 0.0258379 9.01542 0.0409529C9.00535 0.0560678 8.99999 0.0738273 9 0.0919897Z" fill="white"/>
<path d="M8.11364 8.57143C8.01117 8.57143 7.91289 8.5338 7.84044 8.46682C7.76798 8.39985 7.72727 8.30901 7.72727 8.21429V0H0.579545C0.42584 0 0.278431 0.0564411 0.169745 0.156907C0.061059 0.257373 0 0.393634 0 0.535714V19.4643C0 19.6064 0.061059 19.7426 0.169745 19.8431C0.278431 19.9436 0.42584 20 0.579545 20H16.4205C16.5742 20 16.7216 19.9436 16.8303 19.8431C16.9389 19.7426 17 19.6064 17 19.4643V8.57143H8.11364ZM13.1364 15.7143H3.86364V14.2857H13.1364V15.7143ZM13.1364 12.1429H3.86364V10.7143H13.1364V12.1429Z" fill="white"/>
</svg>

<svg xmlns="http://www.w3.org/2000/svg" fill="none" viewBox="0 0 17 20"><path fill="#fff" d="M9 .1v6.72a.18.18 0 0 0 .18.18h6.73a.1.1 0 0 0 .06-.16L9.16.03A.1.1 0 0 0 9 .09Z"/><path fill="#fff" d="M8.11 8.57a.4.4 0 0 1-.27-.1.34.34 0 0 1-.11-.26V0H.58a.6.6 0 0 0-.41.16C.07.26 0 .39 0 .54v18.92c0 .15.06.28.17.38.1.1.26.16.41.16h15.84a.6.6 0 0 0 .41-.16c.1-.1.17-.23.17-.38V8.57H8.11Zm5.03 7.14H3.86V14.3h9.28v1.42Zm0-3.57H3.86v-1.43h9.28v1.43Z"/></svg>
